public/flags/WS.svg

<svg fill="none" height="53" viewBox="0 0 61 53" width="61" xmlns="http://www.w3.org/2000/svg" xmlns:xlink="http://www.w3.org/1999/xlink"><mask id="a" height="43" maskUnits="userSpaceOnUse" width="59" x="1" y="3"><rect fill="#fff" height="42.5" rx="4.24286" width="59" x="1" y="3"/></mask><rect fill="#fff" height="42.5" rx="4.24286" width="59" x="1" y="3"/><g mask="url(#a)"><path d="m1 3h59v42.5h-59z" fill="#e31f37"/><g clip-rule="evenodd" fill-rule="evenodd"><path d="m-1.80957 25.6666h33.71427v-25.499974h-33.71427z" fill="#083b9a"/><path d="m15.0475 8.6666-1.9866.5868.5819-2.00347-.5819-2.00347 1.9866.5868 1.9867-.5868-.5819 2.00347.5819 2.00347zm0 14.1666-1.9866.5868.5819-2.0035-.5819-2.0034 1.9866.5868 1.9867-.5868-.5819 2.0034.5819 2.0035zm-7.60561-6.4965 1.98664-.5868 1.98667.5868-.5819-2.0035.5819-2.0034-1.98667.5868-1.98664-.5868.58188 2.0034zm14.62951-2.0035-1.9866.5868.5818-2.0034-.5818-2.0035 1.9866.5868 1.9866-.5868-.5819 2.0035.5819 2.0034zm-2.8095 3.5417c0 .3912-.3145.7083-.7024.7083s-.7024-.3171-.7024-.7083.3145-.7084.7024-.7084.7024.3172.7024.7084z" fill="#fff"/></g></g></svg>

<svg width="61" height="53" viewBox="0 0 61 53" fill="none" xmlns="http://www.w3.org/2000/svg">
<rect x="1" y="3" width="59" height="42.5" rx="4.24286" fill="white"/>
<mask id="mask0" mask-type="alpha" maskUnits="userSpaceOnUse" x="1" y="3" width="59" height="43">
<rect x="1" y="3" width="59" height="42.5" rx="4.24286" fill="white"/>
</mask>
<g mask="url(#mask0)">
<rect x="1" y="3" width="59" height="42.5" fill="#E31F37"/>
<path fill-rule="evenodd" clip-rule="evenodd" d="M-1.80957 25.6666H31.9047V0.166626H-1.80957V25.6666Z" fill="#083B9A"/>
<path fill-rule="evenodd" clip-rule="evenodd" d="M15.0475 8.6666L13.0609 9.2534L13.6428 7.24993L13.0609 5.24646L15.0475 5.83326L17.0342 5.24646L16.4523 7.24993L17.0342 9.2534L15.0475 8.6666ZM15.0475 22.8332L13.0609 23.42L13.6428 21.4165L13.0609 19.4131L15.0475 19.9999L17.0342 19.4131L16.4523 21.4165L17.0342 23.42L15.0475 22.8332ZM7.44189 16.3367L9.42853 15.7499L11.4152 16.3367L10.8333 14.3332L11.4152 12.3298L9.42853 12.9166L7.44189 12.3298L8.02377 14.3332L7.44189 16.3367ZM22.0714 14.3332L20.0848 14.92L20.6666 12.9166L20.0848 10.9131L22.0714 11.4999L24.058 10.9131L23.4761 12.9166L24.058 14.92L22.0714 14.3332ZM19.2619 17.8749C19.2619 18.2661 18.9474 18.5832 18.5595 18.5832C18.1716 18.5832 17.8571 18.2661 17.8571 17.8749C17.8571 17.4837 18.1716 17.1665 18.5595 17.1665C18.9474 17.1665 19.2619 17.4837 19.2619 17.8749Z" fill="white"/>
</g>
</svg>
